X: 117
T: Pollonesse #117
M: 3/4
L: 1/16
R: Pollonesse
K: D
Q: 110
d4dfed c2d2|B2Bd A4F4|G2GF E2f2 f2ed|cedc d4D4:|
|:A4 AcBA ^G2A2|B2A2d4c4|e4 dcBA f2A2|E2A^G A8
|A4Acea Acea|Acea g4f4|A,4 A,CEA A,CEA|A,CEA G6F2|
G2GF E2f2 f2ed|cedc d4D4:|

